images/3234304.svg

<?xml version="1.0" encoding="UTF-8"?>
<svg xmlns="http://www.w3.org/2000/svg" xmlns:xlink="http://www.w3.org/1999/xlink" width="300pt" height="300pt" viewBox="0 0 300 300" version="1.1">
<defs>
<g>
<symbol overflow="visible" id="glyph0-0">
<path style="stroke:none;" d="M 0.796875 2.828125 L 0.796875 -11.28125 L 8.796875 -11.28125 L 8.796875 2.828125 Z M 1.703125 1.9375 L 7.90625 1.9375 L 7.90625 -10.390625 L 1.703125 -10.390625 Z M 1.703125 1.9375 "/>
</symbol>
<symbol overflow="visible" id="glyph0-1">
<path style="stroke:none;" d="M 6.3125 -10.59375 C 5.164062 -10.59375 4.253906 -10.164062 3.578125 -9.3125 C 2.898438 -8.457031 2.5625 -7.296875 2.5625 -5.828125 C 2.5625 -4.359375 2.898438 -3.195312 3.578125 -2.34375 C 4.253906 -1.488281 5.164062 -1.0625 6.3125 -1.0625 C 7.457031 -1.0625 8.363281 -1.488281 9.03125 -2.34375 C 9.695312 -3.195312 10.03125 -4.359375 10.03125 -5.828125 C 10.03125 -7.296875 9.695312 -8.457031 9.03125 -9.3125 C 8.363281 -10.164062 7.457031 -10.59375 6.3125 -10.59375 Z M 6.3125 -11.875 C 7.945312 -11.875 9.253906 -11.328125 10.234375 -10.234375 C 11.210938 -9.140625 11.703125 -7.671875 11.703125 -5.828125 C 11.703125 -3.984375 11.210938 -2.507812 10.234375 -1.40625 C 9.253906 -0.3125 7.945312 0.234375 6.3125 0.234375 C 4.664062 0.234375 3.351562 -0.3125 2.375 -1.40625 C 1.394531 -2.507812 0.90625 -3.984375 0.90625 -5.828125 C 0.90625 -7.671875 1.394531 -9.140625 2.375 -10.234375 C 3.351562 -11.328125 4.664062 -11.875 6.3125 -11.875 Z M 6.3125 -11.875 "/>
</symbol>
<symbol overflow="visible" id="glyph0-2">
<path style="stroke:none;" d="M 1.578125 -11.671875 L 3.703125 -11.671875 L 8.875 -1.90625 L 8.875 -11.671875 L 10.40625 -11.671875 L 10.40625 0 L 8.28125 0 L 3.109375 -9.765625 L 3.109375 0 L 1.578125 0 Z M 1.578125 -11.671875 "/>
</symbol>
<symbol overflow="visible" id="glyph0-3">
<path style="stroke:none;" d="M 8.5625 -11.28125 L 8.5625 -9.75 C 7.96875 -10.03125 7.40625 -10.238281 6.875 -10.375 C 6.34375 -10.519531 5.828125 -10.59375 5.328125 -10.59375 C 4.472656 -10.59375 3.8125 -10.425781 3.34375 -10.09375 C 2.875 -9.757812 2.640625 -9.285156 2.640625 -8.671875 C 2.640625 -8.160156 2.796875 -7.769531 3.109375 -7.5 C 3.421875 -7.238281 4.007812 -7.03125 4.875 -6.875 L 5.828125 -6.671875 C 7.003906 -6.453125 7.867188 -6.054688 8.421875 -5.484375 C 8.984375 -4.921875 9.265625 -4.164062 9.265625 -3.21875 C 9.265625 -2.09375 8.882812 -1.234375 8.125 -0.640625 C 7.375 -0.0546875 6.265625 0.234375 4.796875 0.234375 C 4.242188 0.234375 3.65625 0.164062 3.03125 0.03125 C 2.414062 -0.09375 1.773438 -0.273438 1.109375 -0.515625 L 1.109375 -2.140625 C 1.742188 -1.785156 2.367188 -1.515625 2.984375 -1.328125 C 3.597656 -1.148438 4.203125 -1.0625 4.796875 -1.0625 C 5.703125 -1.0625 6.398438 -1.238281 6.890625 -1.59375 C 7.378906 -1.945312 7.625 -2.453125 7.625 -3.109375 C 7.625 -3.679688 7.445312 -4.128906 7.09375 -4.453125 C 6.738281 -4.773438 6.160156 -5.015625 5.359375 -5.171875 L 4.40625 -5.359375 C 3.226562 -5.597656 2.375 -5.96875 1.84375 -6.46875 C 1.320312 -6.96875 1.0625 -7.660156 1.0625 -8.546875 C 1.0625 -9.578125 1.421875 -10.390625 2.140625 -10.984375 C 2.867188 -11.578125 3.875 -11.875 5.15625 -11.875 C 5.695312 -11.875 6.25 -11.820312 6.8125 -11.71875 C 7.382812 -11.625 7.96875 -11.476562 8.5625 -11.28125 Z M 8.5625 -11.28125 "/>
</symbol>
</g>
</defs>
<g id="surface39169">
<rect x="0" y="0" width="300" height="300" style="fill:rgb(100%,100%,100%);fill-opacity:1;stroke:none;"/>
<path style="fill:none;stroke-width:1.2;stroke-linecap:butt;stroke-linejoin:miter;stroke:rgb(0%,0%,0%);stroke-opacity:1;stroke-miterlimit:10;" d="M 50.738281 73.238281 L 61.234375 89.226562 "/>
<path style="fill:none;stroke-width:1.2;stroke-linecap:butt;stroke-linejoin:miter;stroke:rgb(100%,0%,0%);stroke-opacity:1;stroke-miterlimit:10;" d="M 61.234375 89.226562 L 71.730469 105.214844 "/>
<path style="fill:none;stroke-width:1.2;stroke-linecap:butt;stroke-linejoin:miter;stroke:rgb(100%,0%,0%);stroke-opacity:1;stroke-miterlimit:10;" d="M 71.730469 105.214844 L 90.824219 104.121094 "/>
<path style="fill:none;stroke-width:1.2;stroke-linecap:butt;stroke-linejoin:miter;stroke:rgb(0%,0%,0%);stroke-opacity:1;stroke-miterlimit:10;" d="M 90.824219 104.121094 L 109.917969 103.027344 "/>
<path style=" stroke:none;fill-rule:nonzero;fill:rgb(100%,100%,100%);fill-opacity:1;" d="M 65.730469 95.714844 L 78.730469 95.714844 L 78.730469 114.714844 L 65.730469 114.714844 Z M 65.730469 95.714844 "/>
<g style="fill:rgb(100%,0%,0%);fill-opacity:1;">
  <use xlink:href="#glyph0-1" x="65.730469" y="110.566406"/>
</g>
<path style="fill:none;stroke-width:1.2;stroke-linecap:butt;stroke-linejoin:miter;stroke:rgb(0%,0%,0%);stroke-opacity:1;stroke-miterlimit:10;" d="M 109.917969 103.027344 L 118.515625 85.945312 "/>
<path style="fill:none;stroke-width:1.2;stroke-linecap:butt;stroke-linejoin:miter;stroke:rgb(0%,0%,100%);stroke-opacity:1;stroke-miterlimit:10;" d="M 118.515625 85.945312 L 127.113281 68.863281 "/>
<path style="fill:none;stroke-width:1.2;stroke-linecap:butt;stroke-linejoin:miter;stroke:rgb(0%,0%,0%);stroke-opacity:1;stroke-miterlimit:10;" d="M 119.675781 103.65625 L 126.554688 89.992188 "/>
<path style="fill:none;stroke-width:1.2;stroke-linecap:butt;stroke-linejoin:miter;stroke:rgb(0%,0%,100%);stroke-opacity:1;stroke-miterlimit:10;" d="M 126.554688 89.992188 L 133.433594 76.324219 "/>
<path style="fill:none;stroke-width:1.2;stroke-linecap:butt;stroke-linejoin:miter;stroke:rgb(0%,0%,100%);stroke-opacity:1;stroke-miterlimit:10;" d="M 130.90625 135.003906 L 120.410156 119.015625 "/>
<path style="fill:none;stroke-width:1.2;stroke-linecap:butt;stroke-linejoin:miter;stroke:rgb(0%,0%,0%);stroke-opacity:1;stroke-miterlimit:10;" d="M 120.410156 119.015625 L 109.917969 103.027344 "/>
<path style="fill:none;stroke-width:1.2;stroke-linecap:butt;stroke-linejoin:miter;stroke:rgb(0%,0%,100%);stroke-opacity:1;stroke-miterlimit:10;" d="M 127.113281 68.863281 L 146.207031 67.765625 "/>
<path style="fill:none;stroke-width:1.2;stroke-linecap:butt;stroke-linejoin:miter;stroke:rgb(0%,0%,0%);stroke-opacity:1;stroke-miterlimit:10;" d="M 146.207031 67.765625 L 165.300781 66.671875 "/>
<path style=" stroke:none;fill-rule:nonzero;fill:rgb(100%,100%,100%);fill-opacity:1;" d="M 121.113281 59.363281 L 133.113281 59.363281 L 133.113281 78.363281 L 121.113281 78.363281 Z M 121.113281 59.363281 "/>
<g style="fill:rgb(0%,0%,100%);fill-opacity:1;">
  <use xlink:href="#glyph0-2" x="121.113281" y="74.214844"/>
</g>
<path style="fill:none;stroke-width:1.2;stroke-linecap:butt;stroke-linejoin:miter;stroke:rgb(0%,0%,0%);stroke-opacity:1;stroke-miterlimit:10;" d="M 165.300781 66.671875 L 186.292969 98.648438 "/>
<path style="fill:none;stroke-width:1.2;stroke-linecap:butt;stroke-linejoin:miter;stroke:rgb(0%,0%,0%);stroke-opacity:1;stroke-miterlimit:10;" d="M 159.878906 74.808594 L 176.667969 100.390625 "/>
<path style="fill:none;stroke-width:1.2;stroke-linecap:butt;stroke-linejoin:miter;stroke:rgb(0%,0%,0%);stroke-opacity:1;stroke-miterlimit:10;" d="M 186.292969 98.648438 L 169.09375 132.816406 "/>
<path style="fill:none;stroke-width:1.2;stroke-linecap:butt;stroke-linejoin:miter;stroke:rgb(0%,0%,100%);stroke-opacity:1;stroke-miterlimit:10;" d="M 224.480469 96.460938 L 205.386719 97.554688 "/>
<path style="fill:none;stroke-width:1.2;stroke-linecap:butt;stroke-linejoin:miter;stroke:rgb(0%,0%,0%);stroke-opacity:1;stroke-miterlimit:10;" d="M 205.386719 97.554688 L 186.292969 98.648438 "/>
<path style="fill:none;stroke-width:1.2;stroke-linecap:butt;stroke-linejoin:miter;stroke:rgb(0%,0%,0%);stroke-opacity:1;stroke-miterlimit:10;" d="M 169.09375 132.816406 L 150 133.910156 "/>
<path style="fill:none;stroke-width:1.2;stroke-linecap:butt;stroke-linejoin:miter;stroke:rgb(0%,0%,100%);stroke-opacity:1;stroke-miterlimit:10;" d="M 150 133.910156 L 130.90625 135.003906 "/>
<path style="fill:none;stroke-width:1.2;stroke-linecap:butt;stroke-linejoin:miter;stroke:rgb(0%,0%,0%);stroke-opacity:1;stroke-miterlimit:10;" d="M 164.761719 124.046875 L 149.484375 124.925781 "/>
<path style="fill:none;stroke-width:1.2;stroke-linecap:butt;stroke-linejoin:miter;stroke:rgb(0%,0%,100%);stroke-opacity:1;stroke-miterlimit:10;" d="M 149.484375 124.925781 L 134.210938 125.800781 "/>
<path style="fill:none;stroke-width:1.2;stroke-linecap:butt;stroke-linejoin:miter;stroke:rgb(0%,0%,0%);stroke-opacity:1;stroke-miterlimit:10;" d="M 169.09375 132.816406 L 179.589844 148.804688 "/>
<path style="fill:none;stroke-width:1.2;stroke-linecap:butt;stroke-linejoin:miter;stroke:rgb(0%,0%,100%);stroke-opacity:1;stroke-miterlimit:10;" d="M 179.589844 148.804688 L 190.082031 164.792969 "/>
<path style=" stroke:none;fill-rule:nonzero;fill:rgb(100%,100%,100%);fill-opacity:1;" d="M 124.90625 125.503906 L 136.90625 125.503906 L 136.90625 144.503906 L 124.90625 144.503906 Z M 124.90625 125.503906 "/>
<g style="fill:rgb(0%,0%,100%);fill-opacity:1;">
  <use xlink:href="#glyph0-2" x="124.90625" y="140.355469"/>
</g>
<path style="fill:none;stroke-width:1.2;stroke-linecap:butt;stroke-linejoin:miter;stroke:rgb(0%,0%,100%);stroke-opacity:1;stroke-miterlimit:10;" d="M 190.082031 164.792969 L 209.175781 163.695312 "/>
<path style="fill:none;stroke-width:1.2;stroke-linecap:butt;stroke-linejoin:miter;stroke:rgb(0%,0%,0%);stroke-opacity:1;stroke-miterlimit:10;" d="M 209.175781 163.695312 L 228.269531 162.601562 "/>
<path style="fill:none;stroke-width:1.2;stroke-linecap:butt;stroke-linejoin:miter;stroke:rgb(0%,0%,100%);stroke-opacity:1;stroke-miterlimit:10;" d="M 190.082031 164.792969 L 181.484375 181.875 "/>
<path style="fill:none;stroke-width:1.2;stroke-linecap:butt;stroke-linejoin:miter;stroke:rgb(0%,0%,0%);stroke-opacity:1;stroke-miterlimit:10;" d="M 181.484375 181.875 L 172.886719 198.957031 "/>
<path style=" stroke:none;fill-rule:nonzero;fill:rgb(100%,100%,100%);fill-opacity:1;" d="M 184.082031 155.292969 L 196.082031 155.292969 L 196.082031 174.292969 L 184.082031 174.292969 Z M 184.082031 155.292969 "/>
<g style="fill:rgb(0%,0%,100%);fill-opacity:1;">
  <use xlink:href="#glyph0-2" x="184.082031" y="170.144531"/>
</g>
<path style="fill:none;stroke-width:1.2;stroke-linecap:butt;stroke-linejoin:miter;stroke:rgb(0%,0%,0%);stroke-opacity:1;stroke-miterlimit:10;" d="M 224.507812 165.070312 L 235.003906 181.058594 "/>
<path style="fill:none;stroke-width:1.2;stroke-linecap:butt;stroke-linejoin:miter;stroke:rgb(100%,0%,0%);stroke-opacity:1;stroke-miterlimit:10;" d="M 235.003906 181.058594 L 245.496094 197.046875 "/>
<path style="fill:none;stroke-width:1.2;stroke-linecap:butt;stroke-linejoin:miter;stroke:rgb(0%,0%,0%);stroke-opacity:1;stroke-miterlimit:10;" d="M 232.03125 160.132812 L 242.527344 176.121094 "/>
<path style="fill:none;stroke-width:1.2;stroke-linecap:butt;stroke-linejoin:miter;stroke:rgb(100%,0%,0%);stroke-opacity:1;stroke-miterlimit:10;" d="M 242.527344 176.121094 L 253.023438 192.109375 "/>
<path style="fill:none;stroke-width:1.2;stroke-linecap:butt;stroke-linejoin:miter;stroke:rgb(0%,0%,0%);stroke-opacity:1;stroke-miterlimit:10;" d="M 228.269531 162.601562 L 245.46875 128.4375 "/>
<path style=" stroke:none;fill-rule:nonzero;fill:rgb(100%,100%,100%);fill-opacity:1;" d="M 243.261719 185.078125 L 256.261719 185.078125 L 256.261719 204.078125 L 243.261719 204.078125 Z M 243.261719 185.078125 "/>
<g style="fill:rgb(100%,0%,0%);fill-opacity:1;">
  <use xlink:href="#glyph0-1" x="243.261719" y="199.929688"/>
</g>
<path style="fill:none;stroke-width:1.2;stroke-linecap:butt;stroke-linejoin:miter;stroke:rgb(0%,0%,0%);stroke-opacity:1;stroke-miterlimit:10;" d="M 245.46875 128.4375 L 234.972656 112.449219 "/>
<path style="fill:none;stroke-width:1.2;stroke-linecap:butt;stroke-linejoin:miter;stroke:rgb(0%,0%,100%);stroke-opacity:1;stroke-miterlimit:10;" d="M 234.972656 112.449219 L 224.480469 96.460938 "/>
<path style="fill:none;stroke-width:1.2;stroke-linecap:butt;stroke-linejoin:miter;stroke:rgb(0%,0%,0%);stroke-opacity:1;stroke-miterlimit:10;" d="M 235.84375 130.179688 L 227.449219 117.386719 "/>
<path style="fill:none;stroke-width:1.2;stroke-linecap:butt;stroke-linejoin:miter;stroke:rgb(0%,0%,100%);stroke-opacity:1;stroke-miterlimit:10;" d="M 227.449219 117.386719 L 219.054688 104.597656 "/>
<path style=" stroke:none;fill-rule:nonzero;fill:rgb(100%,100%,100%);fill-opacity:1;" d="M 218.480469 86.960938 L 230.480469 86.960938 L 230.480469 105.960938 L 218.480469 105.960938 Z M 218.480469 86.960938 "/>
<g style="fill:rgb(0%,0%,100%);fill-opacity:1;">
  <use xlink:href="#glyph0-2" x="218.480469" y="101.8125"/>
</g>
<path style="fill:none;stroke-width:1.2;stroke-linecap:butt;stroke-linejoin:miter;stroke:rgb(0%,0%,0%);stroke-opacity:1;stroke-miterlimit:10;" d="M 172.886719 198.957031 L 134.699219 201.144531 "/>
<path style="fill:none;stroke-width:1.2;stroke-linecap:butt;stroke-linejoin:miter;stroke:rgb(0%,0%,0%);stroke-opacity:1;stroke-miterlimit:10;" d="M 134.699219 201.144531 L 114.023438 233.328125 "/>
<path style="fill:none;stroke-width:1.2;stroke-linecap:butt;stroke-linejoin:miter;stroke:rgb(0%,0%,0%);stroke-opacity:1;stroke-miterlimit:10;" d="M 125.058594 199.5 L 108.519531 225.246094 "/>
<path style="fill:none;stroke-width:1.2;stroke-linecap:butt;stroke-linejoin:miter;stroke:rgb(80%,80%,0%);stroke-opacity:1;stroke-miterlimit:10;" d="M 110.480469 171.539062 L 122.589844 186.34375 "/>
<path style="fill:none;stroke-width:1.2;stroke-linecap:butt;stroke-linejoin:miter;stroke:rgb(0%,0%,0%);stroke-opacity:1;stroke-miterlimit:10;" d="M 122.589844 186.34375 L 134.699219 201.144531 "/>
<path style="fill:none;stroke-width:1.2;stroke-linecap:butt;stroke-linejoin:miter;stroke:rgb(0%,0%,0%);stroke-opacity:1;stroke-miterlimit:10;" d="M 114.023438 233.328125 L 77.027344 223.609375 "/>
<path style="fill:none;stroke-width:1.2;stroke-linecap:butt;stroke-linejoin:miter;stroke:rgb(0%,0%,0%);stroke-opacity:1;stroke-miterlimit:10;" d="M 77.027344 223.609375 L 74.839844 185.421875 "/>
<path style="fill:none;stroke-width:1.2;stroke-linecap:butt;stroke-linejoin:miter;stroke:rgb(0%,0%,0%);stroke-opacity:1;stroke-miterlimit:10;" d="M 85.792969 219.273438 L 84.042969 188.726562 "/>
<path style="fill:none;stroke-width:1.2;stroke-linecap:butt;stroke-linejoin:miter;stroke:rgb(0%,0%,0%);stroke-opacity:1;stroke-miterlimit:10;" d="M 74.839844 185.421875 L 92.660156 178.480469 "/>
<path style="fill:none;stroke-width:1.2;stroke-linecap:butt;stroke-linejoin:miter;stroke:rgb(80%,80%,0%);stroke-opacity:1;stroke-miterlimit:10;" d="M 92.660156 178.480469 L 110.480469 171.539062 "/>
<path style=" stroke:none;fill-rule:nonzero;fill:rgb(100%,100%,100%);fill-opacity:1;" d="M 105.480469 162.039062 L 116.480469 162.039062 L 116.480469 181.039062 L 105.480469 181.039062 Z M 105.480469 162.039062 "/>
<g style="fill:rgb(80%,80%,0%);fill-opacity:1;">
  <use xlink:href="#glyph0-3" x="105.480469" y="176.890625"/>
</g>
</g>
</svg>

<svg xmlns="http://www.w3.org/2000/svg" xmlns:xlink="http://www.w3.org/1999/xlink" width="300pt" height="300pt" viewBox="0 0 300 300"><defs><symbol overflow="visible"><path d="M.797 2.828v-14.11h8V2.83zm.906-.89h6.203v-12.33H1.703zm0 0"/></symbol><symbol overflow="visible" id="a"><path d="M6.313-10.594c-1.15 0-2.06.43-2.735 1.28-.68.857-1.015 2.017-1.015 3.486 0 1.47.335 2.633 1.015 3.484.676.856 1.586 1.28 2.735 1.28 1.144.002 2.05-.424 2.718-1.28.665-.85 1-2.015 1-3.484 0-1.47-.335-2.63-1-3.484-.667-.852-1.573-1.282-2.717-1.282zm0-1.28c1.632 0 2.94.546 3.92 1.64.978 1.093 1.47 2.562 1.47 4.406 0 1.844-.492 3.32-1.47 4.422-.98 1.093-2.288 1.64-3.92 1.64-1.65 0-2.96-.546-3.938-1.64-.98-1.102-1.47-2.578-1.47-4.422 0-1.844.49-3.313 1.47-4.406.977-1.094 2.29-1.64 3.938-1.64zm0 0"/></symbol><symbol overflow="visible" id="b"><path d="M1.578-11.672h2.125l5.172 9.766v-9.766h1.53V0H8.282L3.11-9.766V0H1.577zm0 0"/></symbol><symbol overflow="visible" id="c"><path d="M8.563-11.28v1.53c-.594-.28-1.157-.488-1.688-.625-.53-.145-1.047-.22-1.547-.22-.855 0-1.516.17-1.984.5-.47.337-.703.81-.703 1.423 0 .512.157.902.47 1.172.312.262.898.47 1.765.625l.953.203c1.176.22 2.04.617 2.594 1.188.562.562.844 1.32.844 2.265 0 1.126-.383 1.986-1.14 2.58-.75.585-1.86.874-3.33.874-.554 0-1.14-.07-1.765-.203-.616-.124-1.257-.303-1.92-.546V-2.14c.632.355 1.257.624 1.874.812.614.18 1.22.266 1.813.266.906 0 1.6-.176 2.094-.532.49-.35.735-.86.735-1.515 0-.57-.18-1.02-.53-1.343-.357-.32-.935-.563-1.736-.72l-.954-.186c-1.18-.238-2.03-.61-2.562-1.11-.524-.5-.782-1.19-.782-2.077 0-1.03.36-1.844 1.08-2.437.725-.594 1.733-.89 3.014-.89.54 0 1.094.054 1.657.155.57.095 1.156.243 1.75.44zm0 0"/></symbol></defs><g><path fill="#fff" d="M0 0h300v300H0z"/><path d="M50.738 73.238l10.496 15.99" stroke-width="1.2" stroke="#000" stroke-miterlimit="10" fill="none"/><path d="M61.234 89.227l10.496 15.988M71.73 105.215l19.094-1.094" stroke-width="1.2" stroke="#f00" stroke-miterlimit="10" fill="none"/><path d="M90.824 104.12l19.094-1.093" stroke-width="1.2" stroke="#000" stroke-miterlimit="10" fill="none"/><path d="M65.73 95.715h13v19h-13zm0 0" fill="#fff"/><use xlink:href="#a" x="65.73" y="110.566" fill="#f00"/><path d="M109.918 103.027l8.598-17.082" stroke-width="1.2" stroke="#000" stroke-miterlimit="10" fill="none"/><path d="M118.516 85.945l8.597-17.082" stroke-width="1.2" stroke="#00f" stroke-miterlimit="10" fill="none"/><path d="M119.676 103.656l6.88-13.664" stroke-width="1.2" stroke="#000" stroke-miterlimit="10" fill="none"/><path d="M126.555 89.992l6.88-13.668M130.906 135.004l-10.496-15.988" stroke-width="1.2" stroke="#00f" stroke-miterlimit="10" fill="none"/><path d="M120.41 119.016l-10.492-15.99" stroke-width="1.2" stroke="#000" stroke-miterlimit="10" fill="none"/><path d="M127.113 68.863l19.094-1.097" stroke-width="1.2" stroke="#00f" stroke-miterlimit="10" fill="none"/><path d="M146.207 67.766l19.094-1.094" stroke-width="1.2" stroke="#000" stroke-miterlimit="10" fill="none"/><path d="M121.113 59.363h12v19h-12zm0 0" fill="#fff"/><use xlink:href="#b" x="121.113" y="74.215" fill="#00f"/><path d="M165.3 66.672l20.993 31.976M159.88 74.81l16.788 25.58M186.293 98.648l-17.2 34.168" stroke-width="1.2" stroke="#000" stroke-miterlimit="10" fill="none"/><path d="M224.48 96.46l-19.093 1.095" stroke-width="1.2" stroke="#00f" stroke-miterlimit="10" fill="none"/><path d="M205.387 97.555l-19.094 1.093M169.094 132.816L150 133.91" stroke-width="1.2" stroke="#000" stroke-miterlimit="10" fill="none"/><path d="M150 133.91l-19.094 1.094" stroke-width="1.2" stroke="#00f" stroke-miterlimit="10" fill="none"/><path d="M164.762 124.047l-15.278.88" stroke-width="1.2" stroke="#000" stroke-miterlimit="10" fill="none"/><path d="M149.484 124.926l-15.273.875" stroke-width="1.2" stroke="#00f" stroke-miterlimit="10" fill="none"/><path d="M169.094 132.816l10.496 15.99" stroke-width="1.2" stroke="#000" stroke-miterlimit="10" fill="none"/><path d="M179.59 148.805l10.492 15.988" stroke-width="1.2" stroke="#00f" stroke-miterlimit="10" fill="none"/><path d="M124.906 125.504h12v19h-12zm0 0" fill="#fff"/><use xlink:href="#b" x="124.906" y="140.355" fill="#00f"/><path d="M190.082 164.793l19.094-1.098" stroke-width="1.2" stroke="#00f" stroke-miterlimit="10" fill="none"/><path d="M209.176 163.695l19.094-1.093" stroke-width="1.2" stroke="#000" stroke-miterlimit="10" fill="none"/><path d="M190.082 164.793l-8.598 17.082" stroke-width="1.2" stroke="#00f" stroke-miterlimit="10" fill="none"/><path d="M181.484 181.875l-8.597 17.082" stroke-width="1.2" stroke="#000" stroke-miterlimit="10" fill="none"/><path d="M184.082 155.293h12v19h-12zm0 0" fill="#fff"/><use xlink:href="#b" x="184.082" y="170.145" fill="#00f"/><path d="M224.508 165.07l10.496 15.99" stroke-width="1.2" stroke="#000" stroke-miterlimit="10" fill="none"/><path d="M235.004 181.06l10.492 15.987" stroke-width="1.2" stroke="#f00" stroke-miterlimit="10" fill="none"/><path d="M232.03 160.133l10.497 15.988" stroke-width="1.2" stroke="#000" stroke-miterlimit="10" fill="none"/><path d="M242.527 176.12l10.496 15.99" stroke-width="1.2" stroke="#f00" stroke-miterlimit="10" fill="none"/><path d="M228.27 162.602l17.2-34.165" stroke-width="1.2" stroke="#000" stroke-miterlimit="10" fill="none"/><path d="M243.262 185.078h13v19h-13zm0 0" fill="#fff"/><use xlink:href="#a" x="243.262" y="199.93" fill="#f00"/><path d="M245.47 128.438l-10.497-15.99" stroke-width="1.2" stroke="#000" stroke-miterlimit="10" fill="none"/><path d="M234.973 112.45L224.48 96.46" stroke-width="1.2" stroke="#00f" stroke-miterlimit="10" fill="none"/><path d="M235.844 130.18l-8.395-12.793" stroke-width="1.2" stroke="#000" stroke-miterlimit="10" fill="none"/><path d="M227.45 117.387l-8.395-12.79" stroke-width="1.2" stroke="#00f" stroke-miterlimit="10" fill="none"/><path d="M218.48 86.96h12v19h-12zm0 0" fill="#fff"/><use xlink:href="#b" x="218.48" y="101.813" fill="#00f"/><path d="M172.887 198.957l-38.188 2.188M134.7 201.145l-20.677 32.183M125.06 199.5l-16.54 25.746" stroke-width="1.2" stroke="#000" stroke-miterlimit="10" fill="none"/><path d="M110.48 171.54l12.11 14.804" stroke-width="1.2" stroke="#cc0" stroke-miterlimit="10" fill="none"/><path d="M122.59 186.344l12.11 14.8M114.023 233.328l-36.996-9.72M77.027 223.61L74.84 185.42M85.793 219.273l-1.75-30.546M74.84 185.422l17.82-6.942" stroke-width="1.2" stroke="#000" stroke-miterlimit="10" fill="none"/><path d="M92.66 178.48l17.82-6.94" stroke-width="1.2" stroke="#cc0" stroke-miterlimit="10" fill="none"/><path d="M105.48 162.04h11v19h-11zm0 0" fill="#fff"/><use xlink:href="#c" x="105.48" y="176.891" fill="#cc0"/></g></svg>
